X: 2
T: Cock O' The North
R: jig
M: 6/8
L: 1/8
K: Amaj
e/2d/2|cdc cBA|Ace f2e|cdc cBA|BcB Bed|cdc cBA|Ace f2e|c2c BcB|A3 A2:||(3e/2f/2g/2|a2e f2e|a2e f2e|cdc cBA|Bcd efg|a2e f2e|a2e f2e|c2c BcB|A3 A2:||


Tune 1218	Setting 1218

